!!!COM: Scriabin, Alexander
!!!OTL@@FR: Étrangeté
!!!OTL@@EN: Strangeness
!!!OPR@@FR: 2 Poèmes
!!!OPR@@EN: 2 Poems
!!!OPS: 63
!!!ONM: 2
!!!ODT: 1911–1912
!!!AGN: Poem
**kern	**kern	**dynam
*staff2	*staff1	*staff1/2
*Ipiano	*Ipiano	*
*clefG2	*clefG2	*
*k[]	*k[]	*
*X:	*X:	*
*M9/8	*M9/8	*
=1	=1	=1
*^	*	*
[2.B-X [2.e	4.a	8r	.
.	.	16qeeLL	.
.	.	16qff#X	.
.	.	16qaaJJ	.
.	.	8cccL	.
.	.	8ccJ	.
.	2.f#X	8dd-XL	.
.	.	16eeL	.
.	.	16ff#X	.
.	.	16aa	.
.	.	16cccJJ	.
.	.	16qccLL	.
.	.	16qff#JJ	.
4.B-] 4.e]	.	4.ddd#X	.
=2	=2	=2	=2
[2.G [2.c#X	4.f#X	8r	.
.	.	16qcc#XLL	.
.	.	16qdd#X	.
.	.	16qff#XJJ	.
.	.	8aaL	.
.	.	8aJ	.
.	2.e-X	8b-XL	.
.	.	16dd-XL	.
.	.	16ee-X	.
.	.	16gg-X	.
.	.	16aaJJ	.
.	.	16qaLL	.
.	.	16qee-JJ	.
4.G] 4.c#]	.	4.cccn	.
*v	*v	*	*
=3	=3	=3
*M3/4	*M3/4	*
*^	*	*
16F#	112F#XLLLL	16ryy	.
.	112en	.	.
.	112b-X	.	.
.	112dd-X>/	.	.
.	112een>	.	.
.	112ff#X>	.	.
.	112aa>J	.	.
16ryy	16ccc>JJJ	16ccc	.
8ryy	8ryy	8r	.
!!LO:LB:g=original
=-	=-	=-	=-
16F#	112F#LLLL	16ryy	.
.	112e	.	.
.	112b-	.	.
.	112dd->/	.	.
.	112ee>	.	.
.	112ff#>	.	.
.	112aa>JJ	.	.
16ryy	32ccc>JJ	16ccc	.
.	32r>f	.	.
16c	96cLLLL	16ryy	.
.	96b-	.	.
.	96ddn>/	.	.
.	96ee>	.	.
.	96ff#>	.	.
.	96bb-X>JJ	.	.
16ryy	16ccc>JJ	16ccc	.
16f#	80f#XLLLL	16ryy	.
.	80dd-X>/	.	.
.	80ee>	.	.
.	80ff#>	.	.
.	80aa>JJ	.	.
16ryy	16ccc>JJ	16ccc	.
16cc	80ccLLLL	16ryy	.
.	80ddn>/	.	.
.	80ee>	.	.
.	80ff#>	.	.
.	80bb->JJ	.	.
16ryy	16ccc>JJ	16ccc	.
*v	*v	*	*
=4	=4	=4
16ff#	8ff#X<L	.
16ryy	.	.
8ryy	152dd-X<LLL	.
.	152ff-X<	.
.	152gg<	.
.	152aa<	.
.	152ccc<	.
.	152ddd-X\	.
.	152fff-X	.
.	152ggg	.
.	152aaa	.
.	152cccc	.
.	152aaa	.
.	152ggg	.
.	152fff-	.
.	152ddd-	.
.	152ccc<	.
.	152aa<	.
.	152gg<	.
.	152ff-<	.
.	152dd-<JJJJ	.
2a	2ryy	.
.	.	.
!!LO:LB:g=original
=5	=5	=5
*M9/8	*M9/8	*
*^	*	*
[2.B-X [2.e	4.a	8r	.
.	.	16qeeLL	.
.	.	16qff#X	.
.	.	16qaaJJ	.
.	.	8cccL	.
.	.	8ccJ	.
.	2.f#X	8dd-XL	.
.	.	16eeL	.
.	.	16ff#X	.
.	.	16aa	.
.	.	16cccJJ	.
.	.	16qccLL	.
.	.	16qff#JJ	.
4.B-] 4.e]	.	4.ddd#X	.
=6	=6	=6	=6
*	*	*^	*
2.d-X 2.g	4.cc	4.ryy	8r	.
.	.	.	16qggLL	.
.	.	.	16qaa	.
.	.	.	16qcccJJ	.
.	.	.	8eee-XL	.
.	.	.	8ee-XJ	.
.	4.a	4.ryy	8ff-XL	.
.	.	.	16ggL	.
.	.	.	16aa	.
.	.	.	16ccc	.
.	.	.	16eee-JJ	.
4.ryy	8A#X 8g#X 8ddn	16gg#XLL 16aa#X 16ccc#X 16ddd	4fff#X	.
.	.	16cc#XJJ	.	.
.	8r	8r	.	.
.	8r	8r	8ryy	.
*v	*v	*	*	*
=7	=7	=7	=7
4r	4r	4r	.
8r	8r	8r	.
8A#X 8g#X 8dd	16gg#XLL 16aa#X 16ccc#X 16ddd	4fff#X	.
.	16cc#XJJ	.	.
8r	8r	.	.
8r	8r	8r	.
4r	4r	4r	.
8r	8r	8r	.
*	*v	*v	*
*clefF4	*	*
=8	=8	=8
4r	4cc#X/	.
.	[8qdd	.
8cc#X>	8dd_	.
8g#X>L	4dd]	.
8d>	.	.
8G#X/J	8ffn	.
8AA#X	8gg#XL	.
8r	8ccc#X	.
8r	8eeeJ	.
!!LO:LB:g=original
=9	=9	=9
*	*^	*
2.ryy	8rC<	4.aa#X	.
.	56rC<	.	.
.	56E<LLL	.	.
.	56d<	.	.
.	56g#X<	.	.
.	56ff\	.	.
.	56gg#X	.	.
.	56ccc#XJJ	.	.
.	8eeeJ	.	.
.	8rC<	4.bb	.
.	56rC<	.	.
.	56A#X<LLL	.	.
.	56g#X<	.	.
.	56dd<	.	.
.	56ff\	.	.
.	56gg#	.	.
.	56ccc#JJ	.	.
.	8eeeJ	.	.
*clefG2	*	*	*
4.ryy	28ra<	4.ryy	.
.	56ff<LLL	.	.
.	56gg#<	.	.
.	56bb<	.	.
.	56ccc#<	.	.
.	56eee<	.	.
*	*8va	*	*
.	56fff\	.	.
.	56ggg#X	.	.
.	56bbb	.	.
.	56cccc#X	.	.
.	56eeee	.	.
.	56cccc#	.	.
.	56bbb	.	.
.	56ggg#	.	.
.	56fff	.	.
*	*X8va	*	*
.	56eee<	.	.
.	56ccc#<	.	.
.	56bb<	.	.
.	56gg#<	.	.
.	56ff<JJJ	.	.
*	*v	*v	*
*clefF4	*	*
=10	=10	=10
4r	4cc#X/	.
.	[8qdd	.
8cc#X>	8dd_	.
8g#X>L	4dd]	.
8d>	.	.
8G#X/J	8ff/	.
8AA#X	8gg#X/L	.
8r	8ccc#X	.
8r	8eeeJ	.
!!LO:LB:g=original
=11	=11	=11
*	*^	*
2.ryy	8rC<	4.aa#X	.
.	56rC<	.	.
.	56E<LLL	.	.
.	56d<	.	.
.	56g#X<	.	.
.	56ff\	.	.
.	56gg#X	.	.
.	56ccc#XJJ	.	.
.	8eeeJ	.	.
.	8rC<	4.bb	.
*clefG2	*	*	*
.	56ra<	.	.
.	56A#X<LLL	.	.
.	56g#X<	.	.
.	56dd<	.	.
.	56ff\	.	.
.	56gg#	.	.
.	56ccc#JJ	.	.
.	8eeeJ	.	.
4.ryy	28r<	4.ryy	.
.	56bb--<LLL	.	.
.	56cccn<	.	.
.	56eee-X<	.	.
.	56fff<	.	.
.	56aaa-X<	.	.
*	*8va	*	*
.	56bbb--\	.	.
.	56ccccn	.	.
.	56eeee-X	.	.
.	56ffff	.	.
.	56aaaa-X	.	.
.	56ffff	.	.
.	56eeee-	.	.
.	56cccc	.	.
.	56bbb--\	.	.
*	*X8va	*	*
.	56aaa-<	.	.
.	56fff<	.	.
.	56eee-<	.	.
.	56ccc<	.	.
.	56bb--<JJJ	.	.
*	*v	*v	*
*clefF4	*	*
=12	=12	=12
4r	4ff/	.
.	[8qgg-X	.
8ff>	8gg-_	.
8cc>L	4gg-]	.
8g-X>	.	.
8c/J	8bb--/	.
8D	8ccc/L	.
8r	8fff	.
8r	8aaa-XJ	.
*clefG2	*	*
!!LO:LB:g=original
=13	=13	=13
*	*^	*
2.ryy	8r<	4.ddd	.
.	56r<	.	.
.	56A-X<LLL	.	.
.	56g-X<	.	.
.	56cc<	.	.
.	56bb--\	.	.
.	56ccc	.	.
.	56fffJJ	.	.
.	8aaa-XJ	.	.
.	8r<	4.eee-X	.
.	56r<	.	.
.	56d<LLL	.	.
.	56cc<	.	.
.	56gg-X<	.	.
.	56bb--\	.	.
.	56ccc	.	.
.	56fffJJ	.	.
.	8aaa-J	.	.
4.ryy	28r<	4.ryy	.
.	56bb--<LLL	.	.
.	56ccc<	.	.
.	56eee-X<	.	.
.	56fff<	.	.
.	56aaa-<	.	.
*	*8va	*	*
.	56bbb--\	.	.
.	56cccc	.	.
.	56eeee-X	.	.
.	56ffff	.	.
.	56aaaa-X	.	.
.	56ffff	.	.
.	56eeee-	.	.
.	56cccc	.	.
.	56bbb--\	.	.
*	*X8va	*	*
.	56aaa-<	.	.
.	56fff<	.	.
.	56eee-<	.	.
.	56ccc<	.	.
.	56bb--<JJJ	.	.
*	*v	*v	*
!!LO:LB:g=original
=14	=14	=14
8r	4.ddd	.
56r	.	.
56A-XLLL	.	.
56g-X	.	.
56cc	.	.
56bb-->/	.	.
56ccc>	.	.
56fff>JJ	.	.
8aaa-X>J	.	.
8r	4.eee-X	.
56r	.	.
56dLLL	.	.
56cc	.	.
56gg-X	.	.
56bb-->/	.	.
56ccc>	.	.
56fff>JJ	.	.
8aaa->J	.	.
8r	4.fff	.
56r	.	.
56c-XLLL	.	.
56b--	.	.
56ee-X	.	.
56ddd-->/	.	.
56eee-X>	.	.
56aaa->JJ	.	.
8cccc-X>J	.	.
=15	=15	=15
*	*^	*
2.ryy	8r<	4.ggg-X	.
.	56r<	.	.
.	56f<LLL	.	.
.	56ee-X<	.	.
.	56bb--<	.	.
*	*8va	*	*
.	56ddd--\	.	.
.	56eee-X	.	.
.	56aaa-XJJ	.	.
.	8cccc-XJ	.	.
.	8raa<	4.ggg#X	.
*	*X8va	*	*
.	56r<	.	.
.	56dn<LLL	.	.
.	56ccn<	.	.
.	56ff#X<	.	.
*	*8va	*	*
.	56eee-\	.	.
.	56fff#X	.	.
.	56bbbJJ	.	.
.	8ddddnJ	.	.
!!LO:LB:g=original
=-	=-	=-	=-
4.ryy	8raa<	4.aaan	.
*	*X8va	*	*
.	56r<	.	.
.	56g#X<LLL	.	.
.	56ff#<	.	.
.	56ccc<	.	.
*	*8va	*	*
.	56eee-\	.	.
.	56fff#X	.	.
.	56bbbJJ	.	.
.	8ddddJ	.	.
*	*v	*v	*
=16	=16	=16
[8qb	.	.
8b] 8ee-X 8ff#X 8aa 8bb 8ddd	8eee-X 8fff#X 8aaa 8bbb 8dddd	.
*	*X8va	*
*	*^	*
8ryy	80r<	8ryy	.
.	80ee-<LLLL	.	.
.	80ff#<	.	.
.	80aa<	.	.
.	80bb<	.	.
.	80ddd<	.	.
*	*8va	*	*
.	80eee-X\	.	.
.	80fff#X	.	.
.	80aaa	.	.
.	80bbbJJJJ	.	.
8ryy	80ddddLLLL	8ryy	.
.	80bbb	.	.
.	80aaa	.	.
.	80fff#	.	.
.	80eee-	.	.
*	*X8va	*	*
.	80ddd<\	.	.
.	80bb<	.	.
.	80aa<	.	.
.	80ff#<	.	.
.	80ee-<JJJJ	.	.
2.ryy	2.b<\	2.ryy	.
!!LO:LB:g=original
=17	=17	=17	=17
2.ryy	8r	8%9ryy	.
.	80rcc<	.	.
.	80ee-X<LLLL	.	.
.	80ff#X<	.	.
.	80aa<	.	.
.	80bb<	.	.
.	80ddd<	.	.
*	*8va	*	*
.	80eee-X\	.	.
.	80fff#X	.	.
.	80aaa	.	.
.	80bbb	.	.
.	80dddd	.	.
.	80bbb	.	.
.	80aaa	.	.
.	80fff#	.	.
.	80eee-	.	.
*	*X8va	*	*
.	80ddd<	.	.
.	80bb<	.	.
.	80aa<	.	.
.	80ff#<	.	.
.	80ee-<JJJJ	.	.
.	8b	.	.
.	80rcc<	.	.
.	80cc<LLLL	.	.
.	80dd#X<	.	.
.	80ff#<	.	.
.	80gg#X<	.	.
.	80bb<	.	.
*	*8va	*	*
.	80ccc\	.	.
.	80ddd#X	.	.
.	80fff#	.	.
.	80ggg#X	.	.
.	80bbb	.	.
.	80ggg#	.	.
.	80fff#	.	.
.	80ddd#	.	.
.	80ccc	.	.
*	*X8va	*	*
.	80bb<	.	.
.	80gg#<	.	.
.	80ff#<	.	.
.	80dd#<	.	.
.	80cc<JJJJ	.	.
!!LO:LB:g=original
=-	=-	=-	=-
4.ryy	8g#X/	.	.
.	64rcc<	.	.
.	64b--<LLLL	.	.
.	64cc<	.	.
.	64ee-<	.	.
.	64ffn<	.	.
.	64aa-X<	.	.
*	*8va	*	*
.	64bb--\	.	.
.	64ccc	.	.
.	64eee-	.	.
.	64fffn	.	.
.	64aaa-X	.	.
.	64bbb--	.	.
.	64cccc	.	.
.	64eeee-X	.	.
.	64ffffX	.	.
.	64aaaa-XJJJJ	.	.
*	*X8va	*	*
*	*v	*v	*
*^	*	*
=18	=18	=18	=18
[2.B-X [2.enX	4.anX	8r	.
.	.	16qeenLL	.
.	.	16qff#X	.
.	.	16qaanJJ	.
.	.	8cccL	.
.	.	8ccJ	.
.	2.f#X	8dd-XL	.
.	.	16eeL	.
.	.	16ff#	.
.	.	16aa	.
.	.	16cccJJ	.
.	.	16qccLL	.
.	.	16qff#JJ	.
4.B-] 4.e]	.	4.ddd#X	.
=19	=19	=19	=19
[2.G [2.c#X	4.f#X	8r	.
.	.	16qcc#XLL	.
.	.	16qdd#X	.
.	.	16qff#XJJ	.
.	.	8aaL	.
.	.	8aJ	.
.	2.e-X	8b-XL	.
.	.	16dd-XL	.
.	.	16ee-X	.
.	.	16gg-X	.
.	.	16aaJJ	.
.	.	16qaLL	.
.	.	16qee-JJ	.
4.G] 4.c#]	.	4.cccn	.
*v	*v	*	*
!!LO:LB:g=original
=20	=20	=20
*M3/4	*M3/4	*
*^	*	*
16F#	112F#XLLLL	16ryy	.
.	112en	.	.
.	112b-X	.	.
.	112dd-X>/	.	.
.	112een>	.	.
.	112ff#X>	.	.
.	112aa>JJ	.	.
16ryy	16ccc>JJ	16ccc	.
8ryy	8ryy	8r	.
16F#	112F#LLLL	16ryy	.
.	112e	.	.
.	112b-	.	.
.	112dd->/	.	.
.	112ee>	.	.
.	112ff#>	.	.
.	112aa>JJ	.	.
16ryy	16ccc>JJ	16ccc	.
16c	96cLLLL	16ryy	.
.	96b-	.	.
.	96ddn>/	.	.
.	96ee>	.	.
.	96ff#>	.	.
.	96bb-X>JJ	.	.
16ryy	16ccc>JJ	16ccc	.
16G#	112G#XLLLL	16ryy	.
.	112f#X	.	.
.	112cc	.	.
.	112ee-X>/	.	.
.	112ff#>	.	.
.	112gg#X>	.	.
.	112bbn>JJ	.	.
16ryy	16ddd>JJ	16ddd	.
16d	96dLLLL	16ryy	.
.	96cc	.	.
.	96een>/	.	.
.	96ff#>	.	.
.	96gg#>	.	.
.	96ccc>JJ	.	.
16ryy	16ddd>JJ	16ddd	.
!!LO:LB:g=original
=21	=21	=21	=21
16A#	112A#XLLLL	16ryy	.
.	112g#X	.	.
.	112dd	.	.
.	112ffn>/	.	.
.	112gg#X>	.	.
.	112aa#X>	.	.
.	112ccc#X>JJ	.	.
16ryy	16eee>JJ	16eee	.
16e	96eLLLL	16ryy	.
.	96dd	.	.
.	96ff#X>/	.	.
.	96gg#>	.	.
.	96aa#>	.	.
.	96ddd>JJ	.	.
16ryy	16eee>JJ	16eee	.
16B#	112B#XLLLL	16ryy	.
.	112a#X	.	.
.	112ee/	.	.
.	112ggn>	.	.
.	112aa#X>	.	.
.	112bb#X>	.	.
.	112ddd#X>JJ	.	.
16ryy	16fff#X>JJ	16fff#	.
16f#	96f#XLLLL	16ryy	.
.	96ee	.	.
.	96gg#X>/	.	.
.	96aa#>	.	.
.	96bb#>	.	.
.	96eee>JJ	.	.
16ryy	16fff#>JJ	16fff#	.
16b#	80b#XLLLL	16ryy	.
.	80ggn>/	.	.
.	80aa#>	.	.
.	80bb#>	.	.
.	80ddd#>JJ	.	.
16ryy	16fff#>JJ	16fff#	.
16ff#	80ff#LLLL	16ryy	.
.	80gg#X>/	.	.
.	80aa#>	.	.
.	80bb#>	.	.
.	80eee>JJ	.	.
16ryy	16fff#>JJ	16fff#	.
*v	*v	*	*
!!LO:LB:g=original
=22	=22	=22
16bb#	8bb#X<L	.
16ryy	.	.
8ryy	152ggn<LLL	.
.	152bb-X<	.
.	152ccc#X<	.
.	152ddd#X<	.
.	152fff#X<	.
*	*8va	*
.	152gggn\	.
.	152bbb-X	.
.	152cccc#X	.
.	152dddd#X	.
.	152ffff#X	.
.	152dddd#	.
.	152cccc#	.
.	152bbb-	.
.	152ggg	.
*	*X8va	*
.	152fff#<	.
.	152ddd#<	.
.	152ccc#<	.
.	152bb-<	.
.	152gg<JJJJ	.
4ryy	2dd#X	.
4ryy	.	.
=23	=23	=23
*M9/8	*M9/8	*
*^	*	*
[2.e [2.a#X	4.dd#X	8r	.
.	.	16qaa#XLL	.
.	.	16qbb#X	.
.	.	16qddd#XJJ	.
.	.	8fff#XL	.
.	.	8ff#XJ	.
.	2.b#X	8ggL	.
.	.	16aa#XL	.
.	.	16bb#X	.
.	.	16ddd#X	.
.	.	16fff#JJ	.
.	.	16qff#LL	.
.	.	16qcccJJ	.
4.e] 4.a#]	.	4.aaan	.
=24	=24	=24	=24
2.g 2.cc#X	4.ff#X/	8r	.
.	.	16qccc#XLL	.
.	.	16qddd#X	.
.	.	16qfff#XJJ	.
.	.	8aaaL	.
.	.	8aaJ	.
.	4.dd#X/	8bb-XL	.
.	.	16ccc#XL	.
.	.	16ddd#X	.
.	.	16fff#X	.
.	.	16aaaJJ	.
4.ryy	4.ryy	32f#X<LLL	.
.	.	32ee<	.
.	.	32bb-X<	.
*	*	*8va	*
.	.	32ddd-X>	.
.	.	32eee>	.
.	.	32fff#X>	.
.	.	32aaa>	.
.	.	32ccccn>JJJ	.
*	*	*X8va	*
.	.	8r>	.
*v	*v	*	*
*clefF4	*	*
!!LO:LB:g=original
=25	=25	=25
4r	4a	.
.	[8qb-X	.
8a>	8b-_	.
8e>L	4b-]	.
8B-X>	.	.
8E/J	8dd-X/	.
8FF#X	8ee/L	.
8r	8aa	.
8r	8cccJ	.
=26	=26	=26
*	*^	*
2.ryy	8rC<	4.ff#X	.
.	56r<	.	.
.	56C<LLL	.	.
.	56B-X<	.	.
.	56e<	.	.
.	56dd-X\	.	.
.	56ee	.	.
.	56aaJJ	.	.
.	8cccJ	.	.
.	8rC<	4.gg	.
.	56r<	.	.
.	56F#X<LLL	.	.
.	56en<	.	.
.	56b-X<	.	.
.	56dd-\	.	.
.	56ee	.	.
.	56aaJJ	.	.
.	8cccJ	.	.
*clefG2	*	*	*
4.ryy	28r<	4.ryy	.
.	56dd-<LLL	.	.
.	56ee<	.	.
.	56gg<	.	.
.	56aa<	.	.
.	56ccc<	.	.
*	*8va	*	*
.	56ddd-X\	.	.
.	56eee	.	.
.	56ggg	.	.
.	56aaa	.	.
.	56cccc	.	.
.	56aaa	.	.
.	56ggg	.	.
.	56eee	.	.
.	56ddd-	.	.
*	*X8va	*	*
.	56ccc<	.	.
.	56aa<	.	.
.	56gg<	.	.
.	56ee<	.	.
.	56dd-<JJJ	.	.
*	*v	*v	*
*clefF4	*	*
!!LO:LB:g=original
=27	=27	=27
4r	4a	.
.	[8qb-X	.
8a>	8b-_	.
8e>L	4b-]	.
8B-X>	.	.
8E/J	8dd-X/	.
8FF#X	8ee/L	.
8r	8aa	.
8r	8cccJ	.
=28	=28	=28
*	*^	*
2.ryy	8rC<	4.ff#X	.
.	56r<	.	.
.	56C<LLL	.	.
.	56B-X<	.	.
.	56e<	.	.
.	56dd-X\	.	.
.	56ee	.	.
.	56aaJJ	.	.
.	8cccJ	.	.
.	8rC<	4.gg	.
.	56r<	.	.
.	56F#X<LLL	.	.
.	56en<	.	.
.	56b-X<	.	.
.	56dd-\	.	.
.	56ee	.	.
.	56aaJJ	.	.
.	8cccJ	.	.
*clefG2	*	*	*
4.ryy	28r<	4.ryy	.
.	56dd-<LLL	.	.
.	56ee<	.	.
.	56gg<	.	.
.	56aa<	.	.
.	56ccc<	.	.
*	*8va	*	*
.	56ddd-X\	.	.
.	56eee	.	.
.	56ggg	.	.
.	56aaa	.	.
.	56cccc	.	.
.	56aaa	.	.
.	56ggg	.	.
.	56eee	.	.
.	56ddd-	.	.
*	*X8va	*	*
.	56ccc<	.	.
.	56aa<	.	.
.	56gg<	.	.
.	56ee<	.	.
.	56dd-<JJJ	.	.
*	*v	*v	*
*clefF4	*	*
!!LO:LB:g=original
=29	=29	=29
*	*^	*
2.ryy	8rC<	4.ff#X	.
.	56r<	.	.
.	56C<LLL	.	.
.	56B-X<	.	.
.	56e<	.	.
.	56dd-X\	.	.
.	56ee	.	.
.	56aaJJ	.	.
.	8cccJ	.	.
.	8rC<	4.gg	.
.	56r<	.	.
.	56F#X<LLL	.	.
.	56en<	.	.
.	56b-X<	.	.
.	56dd-\	.	.
.	56ee	.	.
.	56aaJJ	.	.
.	8cccJ	.	.
*clefG2	*	*	*
4.ryy	28r<	4.ryy	.
.	56dd-<LLL	.	.
.	56ee<	.	.
.	56gg<	.	.
.	56aa<	.	.
.	56ccc<	.	.
*	*8va	*	*
.	56ddd-X\	.	.
.	56eee	.	.
.	56ggg	.	.
.	56aaa	.	.
.	56cccc	.	.
.	56aaa	.	.
.	56ggg	.	.
.	56eee	.	.
.	56ddd-	.	.
*	*X8va	*	*
.	56ccc<	.	.
.	56aa<	.	.
.	56gg<	.	.
.	56ee<	.	.
.	56dd-<JJJ	.	.
*	*v	*v	*
=30	=30	=30
8%9ryy	[2.a	.
.	8aL]	.
.	40b-X<LL	.
.	40dd-X<	.
.	40ee<	.
.	40ff#X<	.
.	40aa<\	.
.	40bb-X	.
.	40ddd-X	.
.	40eee	.
.	40fff#X	.
.	40aaaJJJ	.
=31	=31	=31
8bbb-X	8%9r	.
8r	.	.
8r	.	.
4r	.	.
8r	.	.
4r	.	.
8r	.	.
==	==	==
*-	*-	*-
!!!filter: flipper -a
!!!RDF**kern: < = below
!!!RDF**kern: > = above
!!!system-decoration: {(*)}
!!!ENC: Bryan Jacob Bell
!!!END: November 2021 to April 2022
!!!PED: Günter Philipp
!!!PTL: Ausgewählte Klavierwerke (Edition Peters)
